korla/apps/scalable/rapid-photo-downloader.svg

<svg clip-rule="evenodd" fill-rule="evenodd" stroke-linejoin="round" stroke-miterlimit="2" viewBox="0 0 48 48" xmlns="http://www.w3.org/2000/svg">
 <linearGradient id="a" x2="1" gradientTransform="matrix(0 -27.9305 27.9305 0 32.5459 31.9206)" gradientUnits="userSpaceOnUse">
  <stop stop-color="#c2352a" offset="0"/>
  <stop stop-color="#ff4500" offset="1"/>
 </linearGradient>
 <linearGradient id="b" x2="1" gradientTransform="matrix(0 -28.4665 28.4665 0 14.799 43.9504)" gradientUnits="userSpaceOnUse">
  <stop stop-color="#1778ba" offset="0"/>
  <stop stop-color="#00b0ff" offset="1"/>
 </linearGradient>
 <path d="m39 4 5 5v21.75c0 .693-.557 1.25-1.25 1.25h-19.5c-.692 0-1.25-.557-1.25-1.25v-25.5c0-.692.558-1.25 1.25-1.25z" fill="url(#a)" fill-rule="nonzero"/>
 <path transform="scale(-1)" d="m-25-26.75c0-.69-.56-1.25-1.25-1.25h-13.5c-.69 0-1.25.56-1.25 1.25v8.5c0 .69.56 1.25 1.25 1.25h13.5c.69 0 1.25-.56 1.25-1.25z" fill-opacity=".4"/>
 <g transform="matrix(-1 0 0 1 49 1)" fill="#f8c44e" fill-rule="nonzero">
  <path d="m24 5h1v4h-1z"/>
  <path d="m22 5h1v4h-1z"/>
  <path d="m20 5h1v4h-1z"/>
  <path d="m18 5h1v4h-1z"/>
  <path d="m16 5h1v4h-1z"/>
  <path d="m14 5h1v4h-1z"/>
  <path d="m12 5h1v4h-1z"/>
  <path d="m10 5h1v4h-1z"/>
  <path d="m8 7h1v2h-1z"/>
 </g>
 <path d="m21 16 5 5v21.75c0 .693-.557 1.25-1.25 1.25h-19.5c-.692 0-1.25-.557-1.25-1.25v-25.5c0-.692.558-1.25 1.25-1.25z" fill="url(#b)" fill-rule="nonzero"/>
 <path transform="scale(-1)" d="m-7-38.75c0-.69-.56-1.25-1.25-1.25h-13.5c-.69 0-1.25.56-1.25 1.25v8.5c0 .69.56 1.25 1.25 1.25h13.5c.69 0 1.25-.56 1.25-1.25z" fill-opacity=".4"/>
 <g transform="matrix(-1 0 0 1 31 13)" fill="#f8c44e" fill-rule="nonzero">
  <path d="m24 5h1v4h-1z"/>
  <path d="m22 5h1v4h-1z"/>
  <path d="m20 5h1v4h-1z"/>
  <path d="m18 5h1v4h-1z"/>
  <path d="m16 5h1v4h-1z"/>
  <path d="m14 5h1v4h-1z"/>
  <path d="m12 5h1v4h-1z"/>
  <path d="m10 5h1v4h-1z"/>
  <path d="m8 7h1v2h-1z"/>
 </g>
</svg>

<svg xmlns="http://www.w3.org/2000/svg" width="48" height="48" version="1">
 <path style="opacity:0.2" d="m 39,5 5,5 V 31.75 C 44,32.443 43.443,33 42.75,33 H 23.25 C 22.558,33 22,32.443 22,31.75 V 6.25 C 22,5.5575 22.558,5 23.25,5 Z"/>
 <path style="fill:#c2352a" d="m 39,4 5,5 V 30.75 C 44,31.443 43.443,32 42.75,32 H 23.25 C 22.558,32 22,31.443 22,30.75 V 5.25 C 22,4.5575 22.558,4 23.25,4 Z"/>
 <rect style="opacity:0.4" width="16" height="11" x="-41" y="-28" rx="1.25" ry="1.375" transform="scale(-1)"/>
 <g style="opacity:0.2" transform="matrix(-1,0,0,1,49,2)">
  <rect width="1" height="4" x="24" y="5"/>
  <rect width="1" height="4" x="22" y="5"/>
  <rect width="1" height="4" x="20" y="5"/>
  <rect width="1" height="4" x="18" y="5"/>
  <rect width="1" height="4" x="16" y="5"/>
  <rect width="1" height="4" x="14" y="5"/>
  <rect width="1" height="4" x="12" y="5"/>
  <rect width="1" height="4" x="10" y="5"/>
  <rect width="1" height="2" x="8" y="7"/>
 </g>
 <g style="fill:#f8c44e" transform="matrix(-1,0,0,1,49,1)">
  <rect width="1" height="4" x="24" y="5"/>
  <rect width="1" height="4" x="22" y="5"/>
  <rect width="1" height="4" x="20" y="5"/>
  <rect width="1" height="4" x="18" y="5"/>
  <rect width="1" height="4" x="16" y="5"/>
  <rect width="1" height="4" x="14" y="5"/>
  <rect width="1" height="4" x="12" y="5"/>
  <rect width="1" height="4" x="10" y="5"/>
  <rect width="1" height="2" x="8" y="7"/>
 </g>
 <path style="opacity:0.1;fill:#ffffff" d="m 39,4 5,5 v 1 L 39,5 H 23.25 C 22.558,5 22,5.5575 22,6.25 v -1 C 22,4.5575 22.558,4 23.25,4 Z"/>
 <path style="opacity:0.2" d="m 21,17 5,5 V 43.75 C 26,44.443 25.443,45 24.75,45 H 5.25 C 4.558,45 4,44.443 4,43.75 V 18.25 C 4,17.5575 4.558,17 5.25,17 Z"/>
 <path style="fill:#1778ba" d="m 21,16 5,5 V 42.75 C 26,43.443 25.443,44 24.75,44 H 5.25 C 4.558,44 4,43.443 4,42.75 V 17.25 C 4,16.5575 4.558,16 5.25,16 Z"/>
 <g style="opacity:0.2" transform="matrix(-1,0,0,1,31,14)">
  <rect width="1" height="4" x="24" y="5"/>
  <rect width="1" height="4" x="22" y="5"/>
  <rect width="1" height="4" x="20" y="5"/>
  <rect width="1" height="4" x="18" y="5"/>
  <rect width="1" height="4" x="16" y="5"/>
  <rect width="1" height="4" x="14" y="5"/>
  <rect width="1" height="4" x="12" y="5"/>
  <rect width="1" height="4" x="10" y="5"/>
  <rect width="1" height="2" x="8" y="7"/>
 </g>
 <rect style="opacity:0.4" width="16" height="11" x="-23" y="-40" rx="1.25" ry="1.375" transform="scale(-1)"/>
 <g style="fill:#f8c44e" transform="matrix(-1,0,0,1,31,13)">
  <rect width="1" height="4" x="24" y="5"/>
  <rect width="1" height="4" x="22" y="5"/>
  <rect width="1" height="4" x="20" y="5"/>
  <rect width="1" height="4" x="18" y="5"/>
  <rect width="1" height="4" x="16" y="5"/>
  <rect width="1" height="4" x="14" y="5"/>
  <rect width="1" height="4" x="12" y="5"/>
  <rect width="1" height="4" x="10" y="5"/>
  <rect width="1" height="2" x="8" y="7"/>
 </g>
 <path style="opacity:0.1;fill:#ffffff" d="m 21,16 5,5 v 1 L 21,17 H 5.25 C 4.558,17 4,17.5575 4,18.25 v -1 C 4,16.5575 4.558,16 5.25,16 Z"/>
</svg>
